X: 1576
T: Angus Chisholm's Favourite
R: reel
M: 4/4
K: Cmajor
C2CEc2cG|E2EG FDDE|C2CEc2cd|1 egdg eccG:|2 egdg eccd||
c2cd gage|gage fdde|c2cd gage|daag eccd|
c2cd gage|gage fddf|efge agfe|fagf eccG||

